public/img/group_add.svg

<svg width="38" height="38" viewBox="0 0 38 38" fill="none" xmlns="http://www.w3.org/2000/svg">
<mask id="mask0_138_840" style="mask-type:alpha" maskUnits="userSpaceOnUse" x="0" y="0" width="38" height="38">
<rect width="38" height="38" fill="#D9D9D9"/>
</mask>
<g mask="url(#mask0_138_840)">
<path d="M19.7917 18.9208C20.5569 18.0764 21.1441 17.1132 21.5531 16.0313C21.9622 14.9493 22.1667 13.8278 22.1667 12.6667C22.1667 11.5056 21.9622 10.384 21.5531 9.30209C21.1441 8.22015 20.5569 7.25695 19.7917 6.41251C21.375 6.62362 22.6944 7.32293 23.75 8.51043C24.8056 9.69793 25.3333 11.0833 25.3333 12.6667C25.3333 14.25 24.8056 15.6354 23.75 16.8229C22.6944 18.0104 21.375 18.7097 19.7917 18.9208ZM28.5 31.6667V26.9167C28.5 25.9667 28.2889 25.0629 27.8667 24.2052C27.4444 23.3476 26.8903 22.5889 26.2042 21.9292C27.55 22.4042 28.7969 23.0177 29.9448 23.7698C31.0927 24.5219 31.6667 25.5708 31.6667 26.9167V31.6667H28.5ZM31.6667 20.5833V17.4167H28.5V14.25H31.6667V11.0833H34.8333V14.25H38V17.4167H34.8333V20.5833H31.6667ZM12.6667 19C10.925 19 9.43403 18.3799 8.19375 17.1396C6.95347 15.8993 6.33333 14.4083 6.33333 12.6667C6.33333 10.925 6.95347 9.43404 8.19375 8.19376C9.43403 6.95348 10.925 6.33334 12.6667 6.33334C14.4083 6.33334 15.8993 6.95348 17.1396 8.19376C18.3799 9.43404 19 10.925 19 12.6667C19 14.4083 18.3799 15.8993 17.1396 17.1396C15.8993 18.3799 14.4083 19 12.6667 19ZM0 31.6667V27.2333C0 26.3361 0.230903 25.5115 0.692708 24.7594C1.15451 24.0073 1.76806 23.4333 2.53333 23.0375C4.16944 22.2195 5.83194 21.6059 7.52083 21.1969C9.20972 20.7879 10.925 20.5833 12.6667 20.5833C14.4083 20.5833 16.1236 20.7879 17.8125 21.1969C19.5014 21.6059 21.1639 22.2195 22.8 23.0375C23.5653 23.4333 24.1788 24.0073 24.6406 24.7594C25.1024 25.5115 25.3333 26.3361 25.3333 27.2333V31.6667H0ZM12.6667 15.8333C13.5375 15.8333 14.283 15.5233 14.9031 14.9031C15.5233 14.283 15.8333 13.5375 15.8333 12.6667C15.8333 11.7958 15.5233 11.0504 14.9031 10.4302C14.283 9.81008 13.5375 9.50001 12.6667 9.50001C11.7958 9.50001 11.0503 9.81008 10.4302 10.4302C9.81007 11.0504 9.5 11.7958 9.5 12.6667C9.5 13.5375 9.81007 14.283 10.4302 14.9031C11.0503 15.5233 11.7958 15.8333 12.6667 15.8333ZM3.16667 28.5H22.1667V27.2333C22.1667 26.9431 22.0941 26.6792 21.949 26.4417C21.8038 26.2042 21.6125 26.0194 21.375 25.8875C19.95 25.175 18.5118 24.6406 17.0604 24.2844C15.609 23.9281 14.1444 23.75 12.6667 23.75C11.1889 23.75 9.72431 23.9281 8.27292 24.2844C6.82153 24.6406 5.38333 25.175 3.95833 25.8875C3.72083 26.0194 3.52951 26.2042 3.38438 26.4417C3.23924 26.6792 3.16667 26.9431 3.16667 27.2333V28.5Z" fill="#33B148"/>
</g>
</svg>

<svg xmlns="http://www.w3.org/2000/svg" width="38" height="38" fill="none"><mask id="a" width="38" height="38" x="0" y="0" maskUnits="userSpaceOnUse" style="mask-type:alpha"><path fill="#D9D9D9" d="M0 0h38v38H0z"/></mask><g mask="url(#a)"><path fill="#33B148" d="M19.792 18.92a9 9 0 0 0 1.761-2.889 9.4 9.4 0 0 0 .614-3.364 9.4 9.4 0 0 0-.614-3.365 9 9 0 0 0-1.761-2.89q2.374.317 3.958 2.098 1.584 1.782 1.583 4.157 0 2.374-1.583 4.156-1.584 1.781-3.958 2.098M28.5 31.668v-4.75q0-1.425-.633-2.712a8.1 8.1 0 0 0-1.663-2.276 17.3 17.3 0 0 1 3.74 1.84q1.723 1.13 1.723 3.148v4.75zm3.167-11.084v-3.166H28.5V14.25h3.167v-3.167h3.166v3.167H38v3.167h-3.167v3.166zm-19-1.583q-2.613 0-4.473-1.86t-1.86-4.473 1.86-4.473 4.473-1.86 4.473 1.86T19 12.667t-1.86 4.473T12.667 19M0 31.667v-4.434q0-1.345.693-2.474a4.6 4.6 0 0 1 1.84-1.721 23.5 23.5 0 0 1 4.988-1.841 21.8 21.8 0 0 1 5.146-.614q2.612 0 5.146.614a23.5 23.5 0 0 1 4.987 1.84q1.148.594 1.84 1.722t.693 2.474v4.434zm12.667-15.834q1.306 0 2.236-.93t.93-2.236-.93-2.237a3.05 3.05 0 0 0-2.236-.93q-1.307 0-2.237.93a3.05 3.05 0 0 0-.93 2.237q0 1.306.93 2.236t2.237.93M3.167 28.5h19v-1.267q0-.435-.218-.791a1.54 1.54 0 0 0-.574-.555 20.6 20.6 0 0 0-4.315-1.603 18.36 18.36 0 0 0-8.787 0q-2.177.535-4.315 1.604a1.54 1.54 0 0 0-.791 1.345z"/></g></svg>
